src/assets/icons/biz-money,fancy,bill.svg

<svg width="48" height="48" viewBox="0 0 48 48" fill="none" xmlns="http://www.w3.org/2000/svg">
<rect opacity="0.2" x="21" y="5" width="22" height="38" rx="4" fill="black"/>
<path opacity="0.2" fill-rule="evenodd" clip-rule="evenodd" d="M43 13C43 9.22876 43 7.34315 41.8284 6.17157C40.6569 5 38.7712 5 35 5H29C25.2288 5 23.3431 5 22.1716 6.17157C21 7.34315 21 9.22876 21 13L43 13ZM21 28V20H43V28H21ZM29 43H35C38.7712 43 40.6569 43 41.8284 41.8284C43 40.6569 43 38.7712 43 35L21 35C21 38.7712 21 40.6569 22.1716 41.8284C23.3431 43 25.2288 43 29 43Z" fill="black"/>
<path d="M18.0469 46H22.1259L22.1605 42.0297C29.6444 41.4625 33.9827 37.5094 34 31.5453C33.9827 25.6844 29.5407 22.5734 23.3877 21.1984L22.3679 20.9578L22.437 12.3641C24.7358 12.8969 26.1358 14.3578 26.3432 16.5234H33.516C33.4296 10.8344 29.1605 6.76094 22.5062 6.03906L22.5407 2H18.4617L18.4272 6.00469C11.6691 6.65781 6.89877 10.7141 6.93333 16.575C6.91605 21.7656 10.5975 24.7391 16.5778 26.1656L18.237 26.5781L18.1506 35.6703C15.3333 35.1375 13.4321 33.4188 13.242 30.5484H6C6.17284 37.4922 10.7531 41.3766 18.0815 42.0125L18.0469 46ZM22.2296 35.6703L22.2988 27.6438C24.9778 28.4859 26.4296 29.5688 26.4469 31.5281C26.4296 33.6078 24.8395 35.1547 22.2296 35.6703ZM18.2889 19.9094C16.1284 19.1703 14.5728 18.0531 14.6074 16.0766C14.6074 14.2375 15.921 12.8109 18.358 12.3125L18.2889 19.9094Z" fill="black"/>
</svg>

<svg xmlns="http://www.w3.org/2000/svg" width="48" height="48" fill="none" viewBox="0 0 48 48">
  <rect width="22" height="38" x="21" y="5" fill="#000" opacity=".2" rx="4"/>
  <path fill="#000" fill-rule="evenodd" d="M43 13c0-3.771 0-5.657-1.172-6.828C40.657 5 38.771 5 35 5h-6c-3.771 0-5.657 0-6.828 1.172C21 7.343 21 9.229 21 13h22zM21 28v-8h22v8H21zm8 15h6c3.771 0 5.657 0 6.828-1.172C43 40.657 43 38.771 43 35H21c0 3.771 0 5.657 1.172 6.828C23.343 43 25.229 43 29 43z" clip-rule="evenodd" opacity=".2"/>
  <path fill="#000" d="M18.047 46h4.079l.034-3.97c7.484-.568 11.823-4.52 11.84-10.485-.017-5.86-4.46-8.972-10.612-10.347l-1.02-.24.069-8.594c2.299.533 3.699 1.994 3.906 4.16h7.173c-.086-5.69-4.355-9.763-11.01-10.485L22.541 2h-4.08l-.034 4.005c-6.758.653-11.528 4.71-11.494 10.57-.017 5.19 3.665 8.164 9.645 9.59l1.659.413-.086 9.092c-2.818-.532-4.719-2.251-4.909-5.122H6c.173 6.944 4.753 10.829 12.081 11.465L18.047 46zm4.183-10.33l.069-8.026c2.679.842 4.13 1.925 4.148 3.884-.017 2.08-1.607 3.627-4.217 4.142zm-3.941-15.76c-2.16-.74-3.716-1.857-3.682-3.833 0-1.84 1.314-3.266 3.751-3.765l-.07 7.597z"/>
</svg>
